source/images/logo/logo-desktop.svg

<svg width="170" height="36" viewBox="0 0 170 36" fill="none" xmlns="http://www.w3.org/2000/svg">
<path d="M140.08 26.336C138.752 26.336 137.52 26.128 136.384 25.712C135.248 25.28 134.264 24.672 133.432 23.888C132.616 23.104 131.976 22.184 131.512 21.128C131.048 20.056 130.816 18.88 130.816 17.6C130.816 16.32 131.048 15.152 131.512 14.096C131.976 13.024 132.624 12.096 133.456 11.312C134.288 10.528 135.272 9.928 136.408 9.512C137.56 9.08 138.816 8.864 140.176 8.864C141.76 8.864 143.176 9.128 144.424 9.656C145.672 10.184 146.704 10.944 147.52 11.936L144.496 14.672C143.92 14.048 143.296 13.584 142.624 13.28C141.968 12.96 141.232 12.8 140.416 12.8C139.696 12.8 139.04 12.912 138.448 13.136C137.856 13.36 137.352 13.688 136.936 14.12C136.52 14.536 136.192 15.04 135.952 15.632C135.728 16.208 135.616 16.864 135.616 17.6C135.616 18.304 135.728 18.952 135.952 19.544C136.192 20.136 136.52 20.648 136.936 21.08C137.352 21.496 137.848 21.824 138.424 22.064C139.016 22.288 139.664 22.4 140.368 22.4C141.072 22.4 141.76 22.288 142.432 22.064C143.104 21.824 143.784 21.424 144.472 20.864L147.136 24.2C146.176 24.888 145.064 25.416 143.8 25.784C142.536 26.152 141.296 26.336 140.08 26.336ZM142.936 23.576V17.24H147.136V24.2L142.936 23.576ZM159.101 26.336C157.757 26.336 156.517 26.12 155.381 25.688C154.245 25.256 153.253 24.648 152.405 23.864C151.573 23.064 150.925 22.136 150.461 21.08C149.997 20.024 149.765 18.864 149.765 17.6C149.765 16.336 149.997 15.176 150.461 14.12C150.925 13.064 151.573 12.144 152.405 11.36C153.253 10.56 154.245 9.944 155.381 9.512C156.517 9.08 157.757 8.864 159.101 8.864C160.461 8.864 161.701 9.08 162.821 9.512C163.957 9.944 164.941 10.56 165.773 11.36C166.605 12.144 167.253 13.064 167.717 14.12C168.197 15.176 168.437 16.336 168.437 17.6C168.437 18.864 168.197 20.032 167.717 21.104C167.253 22.16 166.605 23.08 165.773 23.864C164.941 24.648 163.957 25.256 162.821 25.688C161.701 26.12 160.461 26.336 159.101 26.336ZM159.101 22.4C159.741 22.4 160.333 22.288 160.877 22.064C161.437 21.84 161.917 21.52 162.317 21.104C162.733 20.672 163.053 20.16 163.277 19.568C163.517 18.976 163.637 18.32 163.637 17.6C163.637 16.864 163.517 16.208 163.277 15.632C163.053 15.04 162.733 14.536 162.317 14.12C161.917 13.688 161.437 13.36 160.877 13.136C160.333 12.912 159.741 12.8 159.101 12.8C158.461 12.8 157.861 12.912 157.301 13.136C156.757 13.36 156.277 13.688 155.861 14.12C155.461 14.536 155.141 15.04 154.901 15.632C154.677 16.208 154.565 16.864 154.565 17.6C154.565 18.32 154.677 18.976 154.901 19.568C155.141 20.16 155.461 20.672 155.861 21.104C156.277 21.52 156.757 21.84 157.301 22.064C157.861 22.288 158.461 22.4 159.101 22.4Z" fill="#333333"/>
<path fill-rule="evenodd" clip-rule="evenodd" d="M124 18C124 20.8737 123.401 23.5901 122.337 26H109C111.463 22.2281 114 17.6606 114 13C114 7.00236 109.938 1.95335 104.416 0.453392C105.568 0.156712 106.768 0 108 0C116.837 0 124 8.05888 124 18ZM110 13C110 8.02944 105.971 4 101 4C94.3493 4 92 12.5071 92 18C92 27.9411 99.1634 36 108 36C112.739 36 116.996 33.6825 119.926 30H101C101.352 29.5514 101.72 29.0891 102.099 28.6142C105.616 24.2012 110 18.6997 110 13Z" fill="#7859CF"/>
<path d="M2.65063 26V9.2H10.5946C12.4506 9.2 14.0826 9.544 15.4906 10.232C16.8986 10.92 17.9946 11.888 18.7786 13.136C19.5786 14.384 19.9786 15.872 19.9786 17.6C19.9786 19.312 19.5786 20.8 18.7786 22.064C17.9946 23.312 16.8986 24.28 15.4906 24.968C14.0826 25.656 12.4506 26 10.5946 26H2.65063ZM7.40263 22.208H10.4026C11.3626 22.208 12.1946 22.032 12.8986 21.68C13.6186 21.312 14.1786 20.784 14.5786 20.096C14.9786 19.392 15.1786 18.56 15.1786 17.6C15.1786 16.624 14.9786 15.792 14.5786 15.104C14.1786 14.416 13.6186 13.896 12.8986 13.544C12.1946 13.176 11.3626 12.992 10.4026 12.992H7.40263V22.208ZM22.9588 26V9.2H30.6388C32.1748 9.2 33.4948 9.448 34.5988 9.944C35.7188 10.44 36.5828 11.16 37.1908 12.104C37.7988 13.032 38.1028 14.136 38.1028 15.416C38.1028 16.68 37.7988 17.776 37.1908 18.704C36.5828 19.616 35.7188 20.32 34.5988 20.816C33.4948 21.296 32.1748 21.536 30.6388 21.536H25.5988L27.7108 19.544V26H22.9588ZM33.3508 26L29.1748 19.88H34.2388L38.4388 26H33.3508ZM27.7108 20.048L25.5988 17.864H30.3508C31.3428 17.864 32.0788 17.648 32.5588 17.216C33.0548 16.784 33.3028 16.184 33.3028 15.416C33.3028 14.632 33.0548 14.024 32.5588 13.592C32.0788 13.16 31.3428 12.944 30.3508 12.944H25.5988L27.7108 10.76V20.048ZM41.2044 26V9.2H45.9564V26H41.2044ZM49.8172 26V9.2H53.7292L62.9932 20.384H61.1452V9.2H65.8012V26H61.8892L52.6252 14.816H54.4732V26H49.8172ZM73.8811 22.28L73.6171 16.952L80.8411 9.2H86.0731L78.8731 17L76.2331 19.76L73.8811 22.28ZM69.6331 26V9.2H74.3371V26H69.6331ZM80.9131 26L75.4411 19.064L78.5371 15.752L86.4331 26H80.9131Z" fill="#333333"/>
</svg>

<svg viewBox="0 0 170 36" fill="none" xmlns="http://www.w3.org/2000/svg"><path d="M140.08 26.34a10.6 10.6 0 0 1-3.7-.63 8.82 8.82 0 0 1-2.95-1.82 8.56 8.56 0 0 1-2.61-6.29 8.62 8.62 0 0 1 2.64-6.29 8.52 8.52 0 0 1 2.95-1.8c1.15-.43 2.4-.65 3.77-.65 1.58 0 3 .27 4.24.8a7.94 7.94 0 0 1 3.1 2.28l-3.02 2.73a5.83 5.83 0 0 0-1.88-1.39 5.52 5.52 0 0 0-4.18-.14 4.5 4.5 0 0 0-2.5 2.5 5.4 5.4 0 0 0-.32 1.96 4.77 4.77 0 0 0 1.32 3.48 4.56 4.56 0 0 0 3.43 1.32c.7 0 1.39-.11 2.06-.34a7 7 0 0 0 2.04-1.2l2.67 3.34a10.9 10.9 0 0 1-3.34 1.58c-1.26.37-2.5.56-3.72.56Zm2.86-2.76v-6.34h4.2v6.96l-4.2-.62Zm16.16 2.76c-1.34 0-2.58-.22-3.72-.65a9.1 9.1 0 0 1-2.97-1.83 8.56 8.56 0 0 1-2.64-6.26 8.39 8.39 0 0 1 2.64-6.24 8.9 8.9 0 0 1 2.97-1.85c1.14-.43 2.38-.65 3.72-.65 1.36 0 2.6.22 3.72.65a8.63 8.63 0 0 1 0 16.18 10.3 10.3 0 0 1-3.72.65Zm0-3.94c.64 0 1.23-.11 1.78-.34a4.06 4.06 0 0 0 1.44-.96 5.2 5.2 0 0 0 1.32-3.5 5.08 5.08 0 0 0-1.32-3.48c-.4-.43-.88-.76-1.44-.98a4.8 4.8 0 0 0-3.58 0 4.2 4.2 0 0 0-1.44.98 4.7 4.7 0 0 0-1.3 3.48 5 5 0 0 0 1.3 3.5 4.37 4.37 0 0 0 3.24 1.3Z" fill="#333"/><path fill-rule="evenodd" clip-rule="evenodd" d="M124 18c0 2.87-.6 5.59-1.66 8h-13.34c2.46-3.77 5-8.34 5-13a13 13 0 0 0-9.58-12.55c1.15-.3 2.35-.45 3.58-.45 8.84 0 16 8.06 16 18Zm-14-5a9 9 0 0 0-9-9c-6.65 0-9 8.5-9 14 0 9.94 7.16 18 16 18 4.74 0 9-2.32 11.93-6h-18.93l1.1-1.39c3.52-4.4 7.9-9.91 7.9-15.61Z" fill="#7859CF"/><path d="M2.65 26v-16.8h7.94c1.86 0 3.5.34 4.9 1.03a8 8 0 0 1 3.29 2.9 8.1 8.1 0 0 1 1.2 4.47c0 1.71-.4 3.2-1.2 4.46a7.86 7.86 0 0 1-3.29 2.9c-1.4.7-3.04 1.04-4.9 1.04h-7.94Zm4.75-3.8h3c.96 0 1.8-.17 2.5-.52.72-.37 1.28-.9 1.68-1.58.4-.7.6-1.54.6-2.5 0-.98-.2-1.8-.6-2.5-.4-.68-.96-1.2-1.68-1.56a5.32 5.32 0 0 0-2.5-.55h-3v9.22Zm15.56 3.8v-16.8h7.68c1.53 0 2.85.25 3.96.74a5.77 5.77 0 0 1 2.6 2.16 6 6 0 0 1 .9 3.32c0 1.26-.3 2.36-.9 3.28a5.89 5.89 0 0 1-2.6 2.12 9.9 9.9 0 0 1-3.96.72h-5.04l2.11-2v6.46h-4.75Zm10.4 0-4.19-6.12h5.07l4.2 6.12h-5.09Zm-5.65-5.95-2.11-2.19h4.75c1 0 1.73-.21 2.2-.64.5-.44.75-1.04.75-1.8 0-.79-.25-1.4-.74-1.83-.48-.43-1.22-.65-2.2-.65h-4.76l2.11-2.18v9.29Zm13.5 5.95v-16.8h4.75v16.8h-4.76Zm8.6 0v-16.8h3.92l9.26 11.18h-1.84v-11.18h4.65v16.8h-3.91l-9.26-11.18h1.84v11.18h-4.65Zm24.07-3.72-.26-5.33 7.22-7.75h5.23l-7.2 7.8-2.64 2.76-2.35 2.52Zm-4.25 3.72v-16.8h4.7v16.8h-4.7Zm11.28 0-5.47-6.94 3.1-3.3 7.9 10.24h-5.53Z" fill="#333"/></svg>
